X: 29026
T: Neckbelly
R: reel
M: 4/4
K: Edorian
|:E3B GEBE|BEGA Bcde|dBAB F3d|BdAF GEFD|
BEED EFGA|BEGA Bcde|fdAF dBAF|1 BdAF GEED:|2 BdAF GE E2||
|:g2 ed e2 (g2|g)e ed egba|ge e2 eB B2|BA A2 AGFG|
EBed edBG|EBed egba|gefd edBA|1 BdAF GE E2:|2 BdAF GEFD||

